assets/threads-icon.svg

<svg fill="none" height="16" viewBox="0 0 16 16" width="16" xmlns="http://www.w3.org/2000/svg"><path d="m11.7947 7.41569c-.0689-.03303-.1389-.06482-.2099-.09526-.1235-2.27558-1.3669-3.57835-3.45472-3.59168-.00946-.00006-.01887-.00006-.02833-.00006-1.2488 0-2.28741.53305-2.92667 1.50304l1.14825.78767c.47755-.72454 1.22702-.879 1.77897-.879.00638 0 .01278 0 .01908.00006.68745.00438 1.2062.20426 1.54195.59404.24434.28378.40777.67592.48867 1.17082-.6095-.10359-1.26867-.13545-1.97333-.09505-1.98503.11435-3.26116 1.27206-3.17545 2.88073.04349.816.45001 1.518 1.14461 1.9766.58729.3877 1.34367.5772 2.12978.5343 1.03814-.0569 1.85259-.453 2.42069-1.1772.4315-.55.7045-1.26278.825-2.16087.4947.29859.8614.6915 1.0639 1.16387.3443.8029.3644 2.1223-.7122 3.198-.9432.9423-2.07708 1.35-3.79062 1.3626-1.90078-.0141-3.33831-.6237-4.27295-1.8119-.87522-1.1126-1.32754-2.7196-1.34441-4.7764.01687-2.05685.46919-3.66387 1.34441-4.77644.93464-1.18815 2.37215-1.79773 4.27292-1.81185 1.91457.01423 3.37715.62674 4.34755 1.82062.4759.58547.8346 1.32174 1.0711 2.1802l1.3456-.35901c-.2867-1.05667-.7378-1.96721-1.3516-2.72235-1.2441-1.530613-3.0636-2.3149077-5.40796-2.33117h-.00938c-2.33961.0162058-4.13873.803483-5.34738 2.33994-1.07554 1.36726-1.63033 3.2697-1.64897 5.65444l-.00006.00562.00006.00563c.01864 2.38467.57343 4.28717 1.64897 5.65447 1.20865 1.5364 3.00777 2.3237 5.34738 2.3399h.00938c2.08006-.0144 3.54626-.559 4.75406-1.7657 1.5802-1.5788 1.5326-3.5577 1.0118-4.77255-.3737-.87117-1.0861-1.57873-2.0602-2.04606zm-3.59141 3.37661c-.87.049-1.77384-.3415-1.81841-1.17797-.03303-.62016.44135-1.31216 1.8718-1.3946.16382-.00945.32457-.01406.48249-.01406.51958 0 1.00566.05047 1.44763.14708-.1649 2.05855-1.13172 2.39275-1.98351 2.43955z" fill="#fff" fill-opacity=".9"/></svg>

<svg width="16" height="16" viewBox="0 0 16 16" fill="none" xmlns="http://www.w3.org/2000/svg">
<path d="M11.7947 7.41569C11.7258 7.38266 11.6558 7.35087 11.5848 7.32043C11.4613 5.04485 10.2179 3.74208 8.13008 3.72875C8.12062 3.72869 8.11121 3.72869 8.10175 3.72869C6.85295 3.72869 5.81434 4.26174 5.17508 5.23173L6.32333 6.0194C6.80088 5.29486 7.55035 5.1404 8.1023 5.1404C8.10868 5.1404 8.11508 5.1404 8.12138 5.14046C8.80883 5.14484 9.32758 5.34472 9.66333 5.7345C9.90767 6.01828 10.0711 6.41042 10.152 6.90532C9.5425 6.80173 8.88333 6.76987 8.17867 6.81027C6.19364 6.92462 4.91751 8.08233 5.00322 9.691C5.04671 10.507 5.45323 11.209 6.14783 11.6676C6.73512 12.0553 7.4915 12.2448 8.27761 12.2019C9.31575 12.145 10.1302 11.7489 10.6983 11.0247C11.1298 10.4747 11.4028 9.76192 11.5233 8.86383C12.018 9.16242 12.3847 9.55533 12.5872 10.0277C12.9315 10.8306 12.9516 12.15 11.875 13.2257C10.9318 14.168 9.79792 14.5757 8.08438 14.5883C6.1836 14.5742 4.74607 13.9646 3.81143 12.7764C2.93621 11.6638 2.48389 10.0568 2.46702 8C2.48389 5.94315 2.93621 4.33613 3.81143 3.22356C4.74607 2.03541 6.18358 1.42583 8.08435 1.41171C9.99892 1.42594 11.4615 2.03845 12.4319 3.23233C12.9078 3.8178 13.2665 4.55407 13.503 5.41253L14.8486 5.05352C14.5619 3.99685 14.1108 3.08631 13.497 2.33117C12.2529 0.800557 10.4334 0.0162623 8.08904 0H8.07966C5.74005 0.0162058 3.94093 0.803483 2.73228 2.33994C1.65674 3.7072 1.10195 5.60964 1.08331 7.99438L1.08325 8L1.08331 8.00563C1.10195 10.3903 1.65674 12.2928 2.73228 13.6601C3.94093 15.1965 5.74005 15.9838 8.07966 16H8.08904C10.1691 15.9856 11.6353 15.441 12.8431 14.2343C14.4233 12.6555 14.3757 10.6766 13.8549 9.46175C13.4812 8.59058 12.7688 7.88302 11.7947 7.41569ZM8.20329 10.7923C7.33329 10.8413 6.42945 10.4508 6.38488 9.61433C6.35185 8.99417 6.82623 8.30217 8.25668 8.21973C8.4205 8.21028 8.58125 8.20567 8.73917 8.20567C9.25875 8.20567 9.74483 8.25614 10.1868 8.35275C10.0219 10.4113 9.05508 10.7455 8.20329 10.7923Z" fill="white" fill-opacity="0.9"/>
</svg>
